src/assets/selectIconsSpells/maledizione_4.svg

<svg xmlns="http://www.w3.org/2000/svg" viewBox="0 0 512 512"><path d="M0 0h512v512H0z"/><path fill="#fff" d="M320.977 18.703c-.496-.01-.984-.007-1.463.008-1.358.09-2.045.27-3.057.4L220.38 169.796c1.53 6.565 3.088 13.04 4.778 19.226l-18.027 4.926c-9.073-33.212-15.026-70.992-26.538-94.735-5.757-11.872-12.47-19.702-20.625-23.246-6.714-2.92-15.483-3.28-27.63.6 17.258 50.103 24.184 102.383 33.495 143.826 4.933 21.958 10.617 40.805 18.21 54.317 7.59 13.51 16.324 21.482 29.108 24.625l-4.463 18.148c-18.367-4.515-31.723-17.217-40.94-33.62-4.192-7.46-7.682-15.74-10.726-24.673-30.794 33.74-75.13 70.583-137.602 98.473v135.72h140.437c22.443-42.52 44.626-79.104 66.23-105.74 22.48-27.712 44.393-46.065 68.247-46.47l-.19.006 2.985-.112-28.434-81.853 21.164-7.057-33.67-79.035 68.99 92.844-27.9 7.52 31.3 66.41 149.417-5.558c4.266-5.493 7.614-14.578 8.1-23.91.467-8.97-1.767-17.213-5.073-22.166l-119.5 3.42c.137-8.21-.404-16.456-1.55-24.627l130.184-45.302c2.502-6.403 2.67-15.49-.002-24.108-2.58-8.326-7.588-15.26-12.38-18.79l-130.13 43.943c-3.504-8.287-7.594-16.232-12.177-23.694l108.244-77.542c.024-6.105-2.634-14.563-7.788-21.476-5.365-7.196-12.655-12.406-19.1-14.172l-109.396 79.31c-6.44-5.683-13.267-10.506-20.36-14.316L358.24 39.23c-2.26-4.454-6.892-9.397-13.256-13.218-7.39-4.438-16.575-7.177-24.007-7.31zm-8.975 336.23c-3.66 51.045-31.82 66.58-31.82 95.014 0 14.116 15.503 26.684 31.82 26.684 15.958 0 32.457-12.494 32.457-27.357 0-29.613-27.877-43.213-32.458-94.34z"/></svg>

<?xml version="1.0" encoding="UTF-8" standalone="no"?>
<!DOCTYPE svg PUBLIC "-//W3C//DTD SVG 1.1//EN" "http://www.w3.org/Graphics/SVG/1.1/DTD/svg11.dtd">
<svg width="100%" height="100%" viewBox="0 0 512 512" version="1.1" xmlns="http://www.w3.org/2000/svg" xmlns:xlink="http://www.w3.org/1999/xlink" xml:space="preserve" xmlns:serif="http://www.serif.com/" style="fill-rule:evenodd;clip-rule:evenodd;stroke-linejoin:round;stroke-miterlimit:2;">
    <rect x="0" y="0" width="512" height="512" style="fill-rule:nonzero;"/>
    <path d="M320.977,18.703C320.481,18.693 319.993,18.696 319.514,18.711C318.156,18.801 317.469,18.981 316.457,19.111L220.38,169.796C221.91,176.361 223.468,182.836 225.158,189.022L207.131,193.948C198.058,160.736 192.105,122.956 180.593,99.213C174.836,87.341 168.123,79.511 159.968,75.967C153.254,73.047 144.485,72.687 132.338,76.567C149.596,126.67 156.522,178.95 165.833,220.393C170.766,242.351 176.45,261.198 184.043,274.71C191.633,288.22 200.367,296.192 213.151,299.335L208.688,317.483C190.321,312.968 176.965,300.266 167.748,283.863C163.556,276.403 160.066,268.123 157.022,259.19C126.228,292.93 81.892,329.773 19.42,357.663L19.42,493.383L159.857,493.383C182.3,450.863 204.483,414.279 226.087,387.643C248.567,359.931 270.48,341.578 294.334,341.173L294.144,341.179L297.129,341.067L268.695,259.214L289.859,252.157L256.189,173.122L325.179,265.966L297.279,273.486L328.579,339.896L477.996,334.338C482.262,328.845 485.61,319.76 486.096,310.428C486.563,301.458 484.329,293.215 481.023,288.262L361.523,291.682C361.66,283.472 361.119,275.226 359.973,267.055L490.157,221.753C492.659,215.35 492.827,206.263 490.155,197.645C487.575,189.319 482.567,182.385 477.775,178.855L347.645,222.798C344.141,214.511 340.051,206.566 335.468,199.104L443.712,121.562C443.736,115.457 441.078,106.999 435.924,100.086C430.559,92.89 423.269,87.68 416.824,85.914L307.428,165.224C300.988,159.541 294.161,154.718 287.068,150.908L358.24,39.23C355.98,34.776 351.348,29.833 344.984,26.012C337.594,21.574 328.409,18.835 320.977,18.702L320.977,18.703Z" style="fill:rgb(182,180,180);fill-rule:nonzero;"/>
    <path d="M312.001,354.934C316.582,406.061 344.459,419.661 344.459,449.274C344.459,464.137 327.96,476.631 312.002,476.631C295.685,476.631 280.182,464.063 280.182,449.947C280.182,431.684 291.798,418.743 301.079,398.297C306.248,386.909 310.692,373.193 312.001,354.934Z" style="fill:rgb(47,242,39);"/>
</svg>
